X:1
T:Title
%%score { ( 1 3 ) | ( 2 4 ) }
L:1/8
M:4/4
K:Ab
V:1 treble nm="Grand Piano"
V:3 treble 
V:2 bass 
V:4 bass 
V:1
 z4 z2[Q:1/4=108] [CE]2 | [CE]2 [CF]2 [CG]2 [CA]2 | A2 G4 [DF]2 | E2 [EA]2 [EB]2 [Ec]2 | %4
 [DB]6 [FA]2 | G2 B2 c2 d2 | [Ed]2 [Ec]2 [DEB]2 [CEA]2 | [EG]2 [=DF]2 [Dc]2 [DB]2 |[M:3/4] E6 | %9
[M:1/4] E2 |[M:4/4] B6 z2 | c6 z2 | d2 d2 c2 B2 | c6 z2 | c2 c2 d2 e2 | [Fe]2 [Fd]2 [Fc]2 [FB]2 | %16
 A2 A2 c2 B2 |[M:3/4] [CA]6 |] %18
V:2
 z4 z2 [A,,E,]2 | [A,,E,]2 [A,,E,]2 [A,,E,]2 [A,,E,]2 | [B,,E,]6 [B,,E,]2 | %3
 [C,A,]2 [C,A,]2 [C,A,]2 [C,A,]2 | [D,F,]6 [D,B,]2 | [E,B,E]2 [E,G,E]2 [E,A,E]2 [E,B,E]2 | %6
 [A,,B,]2 [A,,A,]2 A,,2 A,,2 | [B,,B,]2 [B,,B,]2 [B,,F,]2 [B,,A,]2 |[M:3/4] [E,G,]6 |[M:1/4] z2 | %10
[M:4/4] D6 z2 | C6 z2 | [E,B,E]2 [E,B,E]2 [E,A,E]2 [E,G,E]2 | E6 z2 | %14
 [F,=A,F]2 [F,A,F]2 [F,B,F]2 [F,CF]2 | [B,,C]2 [B,,B,]2 [D,B,]2 [D,B,]2 | %16
 [E,CE]2 [E,A,C]2 [E,G,E]2 [E,G,D]2 |[M:3/4] [A,,A,]6 |] %18
V:3
 x8 | x8 | D4 z4 | x8 | x8 | x8 | x8 | x8 |[M:3/4] x6 |[M:1/4] x2 |[M:4/4] z2 G,2 G,2 E2 | %11
 z2 A,2 A,2 E2 | x8 | z2 A,2 A,2 c2 | x8 | x8 | x8 |[M:3/4] x6 |] %18
V:4
 x8 | x8 | x8 | x8 | x8 | x8 | x8 | x8 |[M:3/4] x6 |[M:1/4] x2 |[M:4/4] z2 E,2 E,2 D2 | %11
 z2 E,2 E,2 [E,C]2 | x8 | A,2 E,2 z2 [A,E]2 | x8 | x8 | x8 |[M:3/4] x6 |] %18

